brandFactory_export/1.Light/Proyectos _1Light.svg

<?xml version="1.0" encoding="UTF-8"?>
<svg width="24px" height="24px" viewBox="0 0 24 24" version="1.1" xmlns="http://www.w3.org/2000/svg" xmlns:xlink="http://www.w3.org/1999/xlink">
    <title>1.Light/Proyectos _1Light</title>
    <g id="Symbols" stroke="none" stroke-width="1" fill="none" fill-rule="evenodd">
        <g id="1.Light/Proyectos-_1Light" fill="#5CB615" fill-rule="nonzero">
            <path d="M21.6789916,22.3495798 C21.6789916,22.4907563 21.5210084,22.6352941 21.3630252,22.6352941 L9.12773109,22.6352941 C8.9697479,22.6352941 8.82521008,22.4672269 8.82521008,22.3495798 L8.82521008,5.3210084 C8.82521008,5.21344538 8.99327731,5.03529412 9.12773109,5.03529412 L15.8067227,5.03529412 L15.8067227,7.38487395 C15.8067227,8.35294118 16.1428571,9.18991597 16.7714286,9.79495798 C17.4,10.4067227 18.2470588,10.7226891 19.2420168,10.7226891 L21.6789916,10.7226891 L21.6789916,22.3495798 L21.6789916,22.3495798 Z M7.84033613,5.3210084 L7.84033613,17.8689076 L2.27731092,17.8689076 C2.14957983,17.8689076 1.99159664,17.7109244 1.99159664,17.6134454 L1.99159664,1.24369748 C1.99159664,1.13613445 2.1394958,0.98487395 2.27731092,0.98487395 L14.0453782,0.98487395 C14.1831933,0.98487395 14.3310924,1.11260504 14.3310924,1.24369748 L14.3310924,4.04705882 L9.12773109,4.04705882 C8.4487395,4.04705882 7.84033613,4.65882353 7.84033613,5.3210084 Z M16.7915966,5.33109244 L21.3495798,9.73445378 L19.2420168,9.73445378 C18.512605,9.73445378 17.8941176,9.51596639 17.4638655,9.09243697 C17.0302521,8.66890756 16.794958,8.07731092 16.794958,7.38487395 L16.794958,5.33109244 L16.7915966,5.33109244 L16.7915966,5.33109244 Z M22.6436975,9.84201681 C22.6201681,9.68067227 22.5462185,9.52941176 22.4285714,9.41848739 L17.107563,4.26554622 C16.989916,4.14789916 16.8386555,4.07731092 16.6739496,4.0605042 C16.6436975,4.05042017 16.6134454,4.05042017 16.5764706,4.05042017 L15.3159664,4.05042017 L15.3159664,1.24369748 C15.3159664,0.571428571 14.7344538,0 14.0453782,0 L2.28067227,0 C1.61176471,0 1.01008403,0.58487395 1.01008403,1.24369748 L1.01008403,17.610084 C1.01008403,18.2621849 1.62184874,18.8537815 2.28067227,18.8537815 L7.84033613,18.8537815 L7.84033613,22.3495798 C7.84033613,23.0218487 8.44201681,23.6235294 9.12773109,23.6235294 L21.3663866,23.6235294 C22.0655462,23.6235294 22.6638655,23.0285714 22.6638655,22.3495798 L22.6638655,9.95966387 C22.6638655,9.92268908 22.6537815,9.88235294 22.6436975,9.84201681 L22.6436975,9.84201681 Z" id="Proyectos-_1Light"></path>
        </g>
    </g>
</svg>

<svg width="24" height="24" viewBox="0 0 24 24" xmlns="http://www.w3.org/2000/svg"><path d="M21.679 22.35c0 .14-.158.285-.316.285H9.128c-.158 0-.303-.168-.303-.285V5.32c0-.108.168-.286.303-.286h6.679v2.35c0 .968.336 1.805.964 2.41.629.612 1.476.928 2.471.928h2.437V22.35zM7.84 5.32v12.548H2.277c-.127 0-.285-.158-.285-.256V1.243c0-.107.147-.258.285-.258h11.768c.138 0 .286.128.286.259v2.803H9.128c-.68 0-1.288.612-1.288 1.274zm8.952.01l4.558 4.403h-2.108c-.73 0-1.348-.218-1.778-.642-.434-.423-.669-1.015-.669-1.707V5.33h-.003zm5.852 4.511a.725.725 0 00-.215-.424l-5.321-5.152a.71.71 0 00-.434-.205c-.03-.01-.06-.01-.098-.01h-1.26V1.243C15.316.57 14.734 0 14.046 0H2.28c-.67 0-1.27.585-1.27 1.244V17.61c0 .652.61 1.244 1.27 1.244h5.56v3.496c0 .672.601 1.274 1.287 1.274h12.238c.7 0 1.298-.595 1.298-1.274V9.96a.508.508 0 00-.02-.118z" fill="#5CB615" fill-rule="nonzero"/></svg>
